X:1
T:No4. Mutter Jesu, die du trostlos, weinend, seufzend bei dem Kreuze standst 
L:1/8
Q:1/4=35
M:2/2
K:E
V:1 bass nm="Piano" snm="Pno."
V:1
"^Grave"!p! E,4 E,4 | !fermata!E,8 |: z4 E,4 | z4 B,,4 | (C,4 A,,4) | B,,2 E,2 E,2 E,2 | E,8 | %7
 E,,4 z4 | z8 | z8 |!f!!>(! A,8!>)! |!p! B,2 z2 B,2 z2 | z2 D2 E2 ^A,2 | B,2 B,2 B,2 B,2 | %14
 B,2 B,2 B,2 B,2 | B,,2 B,,2 B,,2 B,,2 | B,,2 B,,2 B,,2 B,,2 | B,,2 B,,2 B,,2 B,,2 | %18
!f! =C,4!p! ^A,,4 | !fermata!B,,8 | z8 | z8 | z8 | z8 | z8 | z8 | z8 |!p! (=D2 B,2) z4 | %28
 (=D2 B,2) z4 | (C2 ^A,2) z4 | B,B,B,B, (G,F,E,G,) | F,8 | (G,^A,B,D,) (E,F,G,^E,) | F,6!f! E,2 | %34
 D,2 z2 E,2 z2 |!p! F,2 z2 z4 | F,2 z2 z4 | (G,4 E,4) | F,F,F,F, F,F,F,F, | B,,4 z2 z (E | %40
 E)D z C z B, z (E | E)D z F2 ^E2 (=E | E)D z2 z4 | (^B,CDG,) (CDEG,) | ^A,=B,CF, B,CDB, | %45
 (E3 F E3 F) | E2 z2 z!f! !wedge!E,!wedge!D,!wedge!C, | B,,2 z2 E,2 z2 |!p! F,2 z2 z4 | F,2 z2 z4 | %50
 (^^F,4 G,2 E,2) | ^F,F,F,F, F,F,F,F, | (B,,2 D,2 F,2 B,,2) | (=C2 =G,2 E,2 =C,2) | %54
 (B,,2 ^D,2 F,2 B,2) | (=C2 =G,2 E,2 =C,2) | B,,B,,B,,B,, B,,B,,B,,B,, |1 B,,4 z4 :|2 %58
 !fermata!B,,8 || (^B,,2 D,2 G,2 B,,2) | (C,2 E,2 G,2 C,2) | (=B,,2 =D,2 ^G,2 B,,2) | A,,4 z4 | %63
 E,4 z4 | F,4 ^D,4 | (E,2 C,2) z4 | z8 | z4 A,B,CA, | ^E,F,G,E, F,G,A,F, | ^E,F,G,E, F,G,A,F, | %70
 (G,8 | (G,8) | (G,8) | (G,8) | (G,8) | G,2) z2 z4 | E,4 z4 | B,,4 z4 | (C,4 A,,4) | %79
 B,,2 E,2 E,2 E,2 | E,8 | E,,4 z4 | z4 z2 (C2 | B,2 A,2 G,2) z2 | z2 (A,2 B,2) B,2 | C4 z4 | %86
 z4 z2 z (E | E)D z =C2 B, z E | E^D z F2 ^E2 (=E | E) ^D2 =D2 C2 (=C | C) B,2 A,2 G,2 (F, | %91
 F,) E,2 A,,2 B,,2 ^B,, | C,4 z (.C,.C,.C,) | C,2 z2 z!pp! (.=C,.C,.C,) | =C,2 z2 z!f! .C,.C,.C, | %95
 !wedge!B,,!wedge!B,,!wedge!B,,!wedge!B,, !wedge!B,,!wedge!B,,!wedge!B,,!wedge!B,, | %96
!ff! !wedge!=C,!wedge!C,!wedge!C,!wedge!C, !wedge!C,!wedge!C,!wedge!C,!wedge!C, | %97
 !wedge!=C,!wedge!C,!wedge!C,!wedge!C, !wedge!C,!wedge!C,!wedge!C,!wedge!C, | %98
 !wedge!B,,!wedge!B,,!wedge!B,,!wedge!B,, !wedge!B,,!wedge!B,,!wedge!B,,!wedge!B,, | B,,2 z2 z4 | %100
!p! B,,2 z2 z4 | (^C,4 A,,4) | B,,2 E,,2 z4 | (A,B,CA,) F,4 | (G,A,B,G,) E,4 | %105
 (F,G,A,C,) (D,E,F,B,,) | (C,D,E,G,,) (A,,B,,C,^A,,) | (B,,4 B,,)!f!!wedge!A,!wedge!G,!wedge!F, | %108
 E,2 z2 A,2 z2 |!p! B,2 z2 z4 | B,,2 z2 z4 | (C,4 A,,4) | B,,B,,B,,B,, B,,B,,B,,B,, | E,,2 z2 z4 | %114
 (^E,F,G,C,) (F,G,A,C,) | (D,=E,F,B,,) (E,F,G,E,) | (A,3 B,) (A,3 B,) | %117
 A,2 z2 z!f! !wedge!A,!wedge!G,!wedge!F, | E,2 z2 A,2 z2 |!p! B,2 z2 z4 | B,,2 z2 z4 | %121
 (^B,,4 C,2 A,,2) | =B,,B,,B,,B,, B,,B,,B,,B,, | E,4 z4 | z4!pp! E,4 | z4 B,,4 | (C,4 A,,4) | %127
!f! !wedge!B,,2 !wedge!E,,2 z4 |] %128

